svg/justify.svg

<?xml version="1.0" encoding="utf-8"?>
<!-- Generated by IcoMoon.io -->
<!DOCTYPE svg PUBLIC "-//W3C//DTD SVG 1.1//EN" "http://www.w3.org/Graphics/SVG/1.1/DTD/svg11.dtd">
<svg version="1.1" xmlns="http://www.w3.org/2000/svg" xmlns:xlink="http://www.w3.org/1999/xlink" width="32" height="32" viewBox="0 0 32 32">
<path d="M32 25v2.286q0 0.464-0.339 0.804t-0.804 0.339h-29.714q-0.464 0-0.804-0.339t-0.339-0.804v-2.286q0-0.464 0.339-0.804t0.804-0.339h29.714q0.464 0 0.804 0.339t0.339 0.804zM32 18.143v2.286q0 0.464-0.339 0.804t-0.804 0.339h-29.714q-0.464 0-0.804-0.339t-0.339-0.804v-2.286q0-0.464 0.339-0.804t0.804-0.339h29.714q0.464 0 0.804 0.339t0.339 0.804zM32 11.286v2.286q0 0.464-0.339 0.804t-0.804 0.339h-29.714q-0.464 0-0.804-0.339t-0.339-0.804v-2.286q0-0.464 0.339-0.804t0.804-0.339h29.714q0.464 0 0.804 0.339t0.339 0.804zM32 4.429v2.286q0 0.464-0.339 0.804t-0.804 0.339h-29.714q-0.464 0-0.804-0.339t-0.339-0.804v-2.286q0-0.464 0.339-0.804t0.804-0.339h29.714q0.464 0 0.804 0.339t0.339 0.804z"></path>
</svg>

<svg xmlns="http://www.w3.org/2000/svg" width="32" height="32" viewBox="0 0 32 32"><path d="M32 25v2.286q0 .464-.339.804t-.804.339H1.143q-.464 0-.804-.339T0 27.286V25q0-.464.339-.804t.804-.339h29.714q.464 0 .804.339T32 25zm0-6.857v2.286q0 .464-.339.804t-.804.339H1.143q-.464 0-.804-.339T0 20.429v-2.286q0-.464.339-.804T1.143 17h29.714q.464 0 .804.339t.339.804zm0-6.857v2.286q0 .464-.339.804t-.804.339H1.143q-.464 0-.804-.339T0 13.572v-2.286q0-.464.339-.804t.804-.339h29.714q.464 0 .804.339t.339.804zm0-6.857v2.286q0 .464-.339.804t-.804.339H1.143q-.464 0-.804-.339T0 6.715V4.429q0-.464.339-.804t.804-.339h29.714q.464 0 .804.339t.339.804z"/></svg>
